X:1
T:Title
%%score 1 2 3
L:1/8
M:3/2
K:C
V:1 treble nm="Part_1"
V:2 treble-8 nm="Part_2"
V:3 treble-8 nm="Part_3"
V:1
 G6 A2 B4 | B4 A6 G2 | B2 cd e2 dc B3 A | c4 z4 A4 | G2 A2 B3 A G2 F2 | E4 D4 E2 F2 | G6 F2 F2 E2 | %7
 G4 z4 A2 G2 | E2 F2 G4 z2 A2 | B2 c2 d4 B2 A2 | c2 d4 B2 A4 | G4 A2 F2 E4 | D12 | z4 z4 d4 | %14
 d6 d2 c2 B2 | d4 e6 dc | B2 c2 d4 e3 d | c6 c2 B2 A2 | c12 | z4 z4 c4 | B2 c2 d6 B2 | %21
 c4 B2 A4 G2 | G2 D2 G2 F4 E2 | G4 z4 B3 A | c2 d4 B2 A4 | G6 A2 B2 c2 | d3 B d2 c4 B2 | %27
 d4 z2 B2 d2 c2 | A4 G4 A2 B2 | c6 B4 A2 | c4 d6 c2 | e4 d2 B2 c4 | B2 e4 d2 B2 c2 | A4 G4 z2 c2 | %34
 B3 A G2 F2 E3 D | F2 GA _B2 AG F2 GE | G12 |] %37
V:2
[K:F] g12- | g4 f8 | g4 c4 d4 | c8 f4 | e4 d8 | c4 d8 | B4 A8 | G8 c4 | c4 e8 | d4 G8 | %10
 e2 d2 f2 g4 f2 | e4 d2 d4 c2 | d12- | d8 f4 | f4 e8 | d4 c8 | g4 f2 e2 c4 | e4 d8 | c12- | c8 A4 | %20
 G8 G4 | A4 G4 c4 | B4 A8 | G8 g4 | e2 f2 d2 g4 f2 | g6 f2 d4 | f4 e8 | d8 f4 | f4 g8 | e4 d8 | %30
 c4 =B8 | c4 B2 G2 A4 | G12 | c8 e4 | d8 c4 | d4 G4 A4 | G12 |] %37
V:3
[K:F] G12- | G4 d8 | G4 g2 g4 f2 | g8 F4 | c4 G4 z2 F2 | A4 B4 G4 | d4 c6 B2 | d8 e4 | g4 c8 | %9
 G4 g8 | g2 f2 d2 G2 A2 B2 | c4 f2 d2 A4 | z4 f2 d2 f2 g2 | a4 f4 B4- | B4 A8 | a2 f2 e2 g6 | %16
 G4 z2 g2 e2 f2 | g4 f6 e2 | g8 a2 g2 | e2 a4 g4 f2 | g8 z2 g2 | c2 d2 e6 d2 | d4 c6 B2 | d8 G4 | %24
 A2 F2 B2 G2 d4 | d4 z4 d4 | d4 A8 | B4 G4 d4 | d4 G8 | c4 G8 | A4 G8 | z2 g6 f2 e2 | g6 f2 d4 | %33
 e8 c4 | f4 z2 d2 A4 | z2 f2 d2 d4 c2 | d12 |] %37

